!!!OTL: 209a. Die unbarmherzige Schwester.
!!!ARE: Europa, Mitteleuropa, Deutschland, Schlesien
!!!SCT: E0209
!!!TXL: @@DE
!!!YEM: Copyright 1995, estate of Helmut Schaffrath.
**kern	**text
*ICvox	*
*M2/4	*
*k[b-]	*
*F:	*
!LO:TX:a:t=Sehr mäßig.	!
{8f	Es
=1	=1
8cc	warn
8cc	ein-
8cc	-mal
8dd	ʒwei
=2	=2
4cc	Schweſtern
8a	.
8dd	(ʒwei
=3	=3
4cc	Schweſtern)
8a}	.
{8a	ʒu
=4	=4
8cc	Hirſch-
8cc	-berg
16ccL	in
16b-J	.
8b-	der
=5	=5
4a	Stadt
8r}	.
{8a	(ʒu
=6	=6
8cc	Hirſch-
8cc	-berg
16ccL	in
16b-J	.
8b-	der
=7	=7
4a	Stadt),
8r}	.
{8a	die
=8	=8
8cc	ei-
8a	-ne
8cc	ging
8a	rum
=9	=9
4cc	bet-
8dd}	-teln,
{8cc	die
=10	=10
8b-/	ei-
8g	-ne
8b-/	ging
8g	rum
=11	=11
4b-	bet-
8cc}	-teln,
{8a	die
=12	=12
8cc	and-
8cc	-re
16ccL	war
16b-J	.
8b-	ſo
=13	=13
4a	reich,
8r}	.
{8a	die
=14	=14
8cc	and-
8cc	-re
16ccL	war
16b-J	.
8b-	ſo
=15	=15
4a	reich.
8r}	.
==	==
!!!AGN: erzaehlendes Volks - Lied, Mahn -, Moral - Lied, Strafe; Geiz
!!!ONB: ESAC (Essen Associative Code) Database: ERK1
!!!AMT: simple duple
!!!AIN: vox
!!!EED: Helmut Schaffrath
!!!EEV: 1.0
!!!GTL: Gottesgerichte und Hoellenstrafen (Mahnlieder)
!!!URL-scan: https://rosdok.uni-rostock.de/mcrviewer/recordIdentifier/rosdok_ppn745146120/iview2/phys_0683.iview2?x=-401.4153369901496&y=1639.9173873420805&scale=0.4895165665220185&rotation=0&layout=singlePageLayout
!!!ENC: Anna Maria Matuszewska
!!!EEV: 2024/06/12
*-	*-
